!!!COM: Gaspar van Weerbeke
!!!CDT: ~1450-~1517
!!!OTL: Dulcis amica Dei
!!!AGN: Motet
!!!SCT: Gas0419
!!!SCA: Gas0419
!!!voices: 5
**kern	**text	**kern	**text	**kern	**text	**kern	**text	**kern	**text
*part5	*part5	*part4	*part4	*part3	*part3	*part2	*part2	*part1	*part1
*staff5	*staff5	*staff4	*staff4	*staff3	*staff3	*staff2	*staff2	*staff1	*staff1
*I"Bassus	*	*I"Contratenor 2	*	*I"Tenor	*	*I"Contratenor 1	*	*I"Superius	*
*I'B	*	*I'Ct2	*	*I'T	*	*I'Ct1	*	*I'S	*
*>[A,B]	*>[A,B]	*>[A,B]	*>[A,B]	*>[A,B]	*>[A,B]	*>[A,B]	*>[A,B]	*>[A,B]	*>[A,B]
*>Dulcis[A]	*>Dulcis[A]	*>Dulcis[A]	*>Dulcis[A]	*>Dulcis[A]	*>Dulcis[A]	*>Dulcis[A]	*>Dulcis[A]	*>Dulcis[A]	*>Dulcis[A]
*>Rogamus[B]	*>Rogamus[B]	*>Rogamus[B]	*>Rogamus[B]	*>Rogamus[B]	*>Rogamus[B]	*>Rogamus[B]	*>Rogamus[B]	*>Rogamus[B]	*>Rogamus[B]
*>A	*>A	*>A	*>A	*>A	*>A	*>A	*>A	*>A	*>A
*clefF4	*	*clefGv2	*	*clefGv2	*	*clefGv2	*	*clefG2	*
*k[b-]	*	*k[b-]	*	*k[b-]	*	*k[b-]	*	*k[b-]	*
*M3/2	*	*M3/2	*	*M3/2	*	*M3/2	*	*M3/2	*
*omet(O)	*	*omet(O)	*	*omet(O)	*	*omet(O)	*	*omet(O)	*
!!section: Dulcis amica
=1	=1	=1	=1	=1	=1	=1	=1	=1	=1
*lig	*	*	*	*	*	*	*	*	*
2GG	Dul-	1G	Dul-	1.r	.	1.r	.	1.r	.
2BB-y	.	.	.	.	.	.	.	.	.
*Xlig	*	*	*	*	*	*	*	*	*
2AA	-cis	2F	-cis	.	.	.	.	.	.
=2	=2	=2	=2	=2	=2	=2	=2	=2	=2
4GG	a-	2G	a-	1.r	.	1.r	.	1g	Dul-
4C	.	.	.	.	.	.	.	.	.
*	*	*lig	*	*	*	*	*	*	*
4BB-y	-mi-	2B-y	-mi-	.	.	.	.	.	.
4GG	.	.	.	.	.	.	.	.	.
2D	-ca	2A	.	.	.	.	.	2f	-cis
*	*	*Xlig	*	*	*	*	*	*	*
=3	=3	=3	=3	=3	=3	=3	=3	=3	=3
1GG	De-	1.r	.	1.r	.	1G	Dul-	2g	a-
*	*	*	*	*	*	*	*	*lig	*
.	.	.	.	.	.	.	.	2b-y	-mi-
2D	-i	.	.	.	.	2F	-cis	2a	.
*	*	*	*	*	*	*	*	*Xlig	*
=4	=4	=4	=4	=4	=4	=4	=4	=4	=4
1.r	.	2r	.	1.r	.	2G	a-	4d	-ca
.	.	.	.	.	.	.	.	4e-j	.
*	*	*	*	*	*	*lig	*	*	*
.	.	2G	-ca	.	.	2B-y	-mi-	4d	.
.	.	.	.	.	.	.	.	4.g	De-
.	.	2D	.	.	.	2A	.	.	.
*	*	*	*	*	*	*Xlig	*	*	*
.	.	.	.	.	.	.	.	8f	.
.	.	.	.	.	.	.	.	[4f	.
!!LO:LB:g=original
=5	=5	=5	=5	=5	=5	=5	=5	=5	=5
1.r	.	4r	.	1.r	.	2D	-ca	4f]	.
.	.	2F	De-	.	.	.	.	2a	.
.	.	.	.	.	.	4r	.	.	.
.	.	4D	.	.	.	2d	De-	4f	.
.	.	2A	-i,	.	.	.	.	2e	.
.	.	.	.	.	.	4c	.	.	.
=6	=6	=6	=6	=6	=6	=6	=6	=6	=6
1.r	.	2r	.	1.r	.	4B-y	.	4d	.
.	.	.	.	.	.	4G	.	4b-y	.
.	.	2r	.	.	.	4F	.	4a	.
.	.	.	.	.	.	4G	.	2g	.
.	.	2D	di-	.	.	2A	.	.	.
.	.	.	.	.	.	.	.	4f#i	.
=7	=7	=7	=7	=7	=7	=7	=7	=7	=7
1.r	.	4E-i	-gna	1.r	.	2G	-i,	1g	-i,
.	.	4.G	ge-	.	.	.	.	.	.
.	.	.	.	.	.	2r	.	.	.
.	.	8A	.	.	.	.	.	.	.
.	.	4.B-y	.	.	.	.	.	.	.
.	.	.	.	.	.	2G	di-	2b-y	di-
.	.	8c	.	.	.	.	.	.	.
.	.	[4d	.	.	.	.	.	.	.
=8	=8	=8	=8	=8	=8	=8	=8	=8	=8
1.r	.	8d]L	.	1.r	.	2F	-gna	2a	-gna
.	.	8cJ	.	.	.	.	.	.	.
.	.	4d	.	.	.	.	.	.	.
.	.	8e-iL	.	.	.	2.E-i	ge-	2.g	ge-
.	.	8d	.	.	.	.	.	.	.
.	.	8c	.	.	.	.	.	.	.
.	.	8B-yJ	.	.	.	.	.	.	.
.	.	2c	-ne-	.	.	.	.	.	.
.	.	.	.	.	.	4E-i	-ne-	4g	-ne-
!!LO:LB:g=original
=9	=9	=9	=9	=9	=9	=9	=9	=9	=9
1.r	.	2.d	-trix,	1.r	.	2D	-trix,	1f	-trix,
.	.	.	.	.	.	4r	.	.	.
.	.	8cL	.	.	.	2D	vir-	.	.
.	.	8B-yJ	.	.	.	.	.	.	.
.	.	4A	vir-	.	.	.	.	2r	.
.	.	4G	.	.	.	4E	.	.	.
=10	=10	=10	=10	=10	=10	=10	=10	=10	=10
1.r	.	4.A	-go	1.r	.	2F	-go	4r	.
.	.	.	.	.	.	.	.	2d	vir-
.	.	8G	.	.	.	.	.	.	.
.	.	2E	sem-	.	.	2G	sem-	.	.
.	.	.	.	.	.	.	.	4e	.
.	.	2D	-per	.	.	2A	-per	2f	-go
=11	=11	=11	=11	=11	=11	=11	=11	=11	=11
1.r	.	4r	.	1.r	.	4B-y	Ma-	2g	sem-
.	.	4C	Ma-	.	.	2c	-ri-	.	.
.	.	2F	-ri-	.	.	.	.	2a	-per
.	.	.	.	.	.	2d	.	.	.
.	.	4G	.	.	.	.	.	4b-y	Ma-
.	.	[4A	.	.	.	4c	.	[4cc	-ri-
=12	=12	=12	=12	=12	=12	=12	=12	=12	=12
1.r	.	8A]L	.	1.r	.	4A	.	8cc]L	.
.	.	8GJ	.	.	.	.	.	8b-y	.
.	.	4F	.	.	.	2d	.	8a	.
.	.	.	.	.	.	.	.	8gJ	.
.	.	4D	.	.	.	.	.	4f	.
.	.	4E	.	.	.	4G	.	2g	.
.	.	2D	-a,	.	.	2A	.	.	.
.	.	.	.	.	.	.	.	4f#i	.
!!LO:PB:g=original
=13	=13	=13	=13	=13	=13	=13	=13	=13	=13
1GG	hu-	2r	.	1.r	.	1.G	-a.	1.g	-a.
.	.	2r	.	.	.	.	.	.	.
2G	-mi-	2d	hu-	.	.	.	.	.	.
=14	=14	=14	=14	=14	=14	=14	=14	=14	=14
1G	-les	4e-i	.	1.r	.	1.r	.	1.r	.
.	.	2d	-mi-	.	.	.	.	.	.
.	.	8cL	.	.	.	.	.	.	.
.	.	8B-yJ	.	.	.	.	.	.	.
2E-j	no-	8cL	.	.	.	.	.	.	.
.	.	8B-y	.	.	.	.	.	.	.
.	.	8A	.	.	.	.	.	.	.
.	.	8GJ	.	.	.	.	.	.	.
=15	=15	=15	=15	=15	=15	=15	=15	=15	=15
2.D	.	1F	-les	1.r	.	1.r	.	1.r	.
4BB-y	.	.	.	.	.	.	.	.	.
2C	.	2E	no-	.	.	.	.	.	.
=16	=16	=16	=16	=16	=16	=16	=16	=16	=16
1GG	-stras	2D	-stras	1.r	.	1.r	.	1.r	.
.	.	4r	.	.	.	.	.	.	.
.	.	2G	ac	.	.	.	.	.	.
4BB-y	ac	.	.	.	.	.	.	.	.
4C	.	4E	.	.	.	.	.	.	.
!!LO:LB:g=original
=17	=17	=17	=17	=17	=17	=17	=17	=17	=17
4.D	fra-	4F	fra-	1.r	.	1.r	.	1.r	.
.	.	2A	.	.	.	.	.	.	.
8E	.	.	.	.	.	.	.	.	.
4F	.	.	.	.	.	.	.	.	.
4G	.	4B-y	.	.	.	.	.	.	.
4E	.	4.c	.	.	.	.	.	.	.
[4F	.	.	.	.	.	.	.	.	.
.	.	8B-y	.	.	.	.	.	.	.
=18	=18	=18	=18	=18	=18	=18	=18	=18	=18
4F]	.	4A	.	1.r	.	1.r	.	1.r	.
4B-y	.	4G	.	.	.	.	.	.	.
4A	.	4F	-gi-	.	.	.	.	.	.
2G	-gi-	4G	.	.	.	.	.	.	.
.	.	2A	-les	.	.	.	.	.	.
4F	.	.	.	.	.	.	.	.	.
=19	=19	=19	=19	=19	=19	=19	=19	=19	=19
4G	-les	4.B-y	su-	1.r	.	1.r	.	1.r	.
4D	su-	.	.	.	.	.	.	.	.
.	.	8A	.	.	.	.	.	.	.
8EL	.	8GL	.	.	.	.	.	.	.
8D	.	8FJ	.	.	.	.	.	.	.
8C	-sci-	4G	-sci-	.	.	.	.	.	.
8BB-yJ	.	.	.	.	.	.	.	.	.
4AA	-pe	4.A	-pe	.	.	.	.	.	.
[4D	pre-	.	.	.	.	.	.	.	.
.	.	8G	.	.	.	.	.	.	.
=20	=20	=20	=20	=20	=20	=20	=20	=20	=20
4D]	.	4F	pre-	1.r	.	1.r	.	1.r	.
4C	.	4E	.	.	.	.	.	.	.
4BB-y	.	4D	.	.	.	.	.	.	.
4C	.	2G	.	.	.	.	.	.	.
2AA	.	.	.	.	.	.	.	.	.
.	.	4F#i	.	.	.	.	.	.	.
!!LO:LB:g=original
=21	=21	=21	=21	=21	=21	=21	=21	=21	=21
1GG	-ces.	1G	-ces.	1.r	.	2r	.	2r	.
.	.	.	.	.	.	2r	.	2r	.
*	*	*	*	*	*	*	*	*col	*
2GG	Ad	2D	.	.	.	2d	Ad	[2g	Ad
=22	=22	=22	=22	=22	=22	=22	=22	=22	=22
*lig	*	*	*	*lig	*	*col	*	*	*
2C	te	2r	.	1.G	Da	2e-j	te	2g]	.
2BB-y	.	1D	Ad	.	.	2d	.	1b-y	te
*Xlig	*	*	*	*	*	*Xcol	*	*Xcol	*
2GG	nos	.	.	.	.	2B-y	nos	.	.
=23	=23	=23	=23	=23	=23	=23	=23	=23	=23
*lig	*	*	*	*	*	*	*	*	*
1.AA	pau-	1C	te	1.F	pa-	1c	pau-	2a	nos
*	*	*	*	*Xlig	*	*	*	*	*
.	.	.	.	.	.	.	.	2a	pau-
.	.	2C	nos	.	.	2A	-pe-	2cc	.
=24	=24	=24	=24	=24	=24	=24	=24	=24	=24
*	*	*	*	*lig	*	*	*	*	*
1GG	.	2.D	pau-	1.G	-cem	1B-y	-res	4b-y	.
*Xlig	*	*	*	*	*	*	*	*	*
.	.	.	.	.	.	.	.	4.g	.
.	.	.	.	.	.	.	.	8f	.
.	.	2G	.	.	.	.	.	4d	.
2C	-pe-	.	.	.	.	2c	in	2e	-pe-
.	.	4E	-pe-	.	.	.	.	.	.
=25	=25	=25	=25	=25	=25	=25	=25	=25	=25
[1.BB-y	-res	1F	-res	[1.B-y	Do-	4d	hoc	1d	-res
*	*	*	*	*	*	*col	*	*	*
.	.	.	.	.	.	4.f	se-	.	.
.	.	.	.	.	.	8eL	.	.	.
*	*	*	*	*	*	*Xcol	*	*	*
.	.	.	.	.	.	8d	.	.	.
.	.	.	.	.	.	8cJ	.	.	.
.	.	2F	in	.	.	2d	-cu-	2r	.
!!LO:PB:g=original
=26	=26	=26	=26	=26	=26	=26	=26	=26	=26
1BB-]	.	1D	hoc	1.B-]	.	4.B-y	-lo	2f	in
*	*	*	*	*Xlig	*	*	*	*	*
.	.	.	.	.	.	8c	.	.	.
.	.	.	.	.	.	2d	.	4g	.
.	.	.	.	.	.	.	.	2b-y	hoc
2GG	.	2G	se-	.	.	2r	.	.	.
.	.	.	.	.	.	.	.	4g	.
=27	=27	=27	=27	=27	=27	=27	=27	=27	=27
*	*	*	*	*lig	*	*	*	*	*
1.FF	.	2C	-cu-	1.c	-mi-	2A	et	4a	se-
.	.	.	.	.	.	.	.	4.cc	.
.	.	1F	-lo	.	.	4F	.	.	.
.	.	.	.	.	.	.	.	8b-yL	.
.	.	.	.	.	.	2f	la-	8a	.
.	.	.	.	.	.	.	.	8gJ	.
.	.	.	.	.	.	.	.	2a	-cu-
.	.	.	.	.	.	4f	-cri-	.	.
=28	=28	=28	=28	=28	=28	=28	=28	=28	=28
1.r	.	2.G	et	1.B-y	-ne,	4.d	-ma-	2b-y	-lo
*	*	*	*	*Xlig	*	*	*	*	*
.	.	.	.	.	.	8c	.	.	.
.	.	.	.	.	.	8B-yL	.	4r	.
.	.	.	.	.	.	8AJ	.	.	.
.	.	2E-i	la-	.	.	2G	.	4.b-y	et
.	.	.	.	.	.	.	.	8a	.
.	.	4D	-cri-	.	.	4d	.	4f	.
=29	=29	=29	=29	=29	=29	=29	=29	=29	=29
1.r	.	4E-i	-ma-	1.r	.	4B-y	.	4.g	la-
.	.	4C	.	.	.	4.e-i	.	.	.
.	.	.	.	.	.	.	.	8f	.
.	.	2D	.	.	.	.	.	4d	-cri-
.	.	.	.	.	.	8d	.	.	.
.	.	.	.	.	.	2d	.	4f	-ma-
.	.	2E-i	.	.	.	.	.	2g	.
.	.	.	.	.	.	4c	.	.	.
!!LO:LB:g=original
=30	=30	=30	=30	=30	=30	=30	=30	=30	=30
*	*	*	*	*lig	*	*	*	*	*
*col	*	*	*	*col	*	*	*	*	*
1D	su-	2D	-rum	[1.A	in	1d	-rum	1f	-rum
.	.	2r	.	.	.	.	.	.	.
2D	-spi-	4.F	val-	.	.	4r	.	2a	val-
.	.	.	.	.	.	4D	val-	.	.
.	.	8E	.	.	.	.	.	.	.
=31	=31	=31	=31	=31	=31	=31	=31	=31	=31
2AA	.	2C	-le	2A]	.	4.E	.	2cc	-le
.	.	.	.	.	.	8F	.	.	.
1GG	-ra-	1D	su-	1B-y	di-	2G	-le	2b-y	su-
*Xcol	*	*	*	*Xcol	*	*	*	*	*
*	*	*	*	*Xlig	*	*	*	*	*
.	.	.	.	.	.	2d	su-	[2g	-spi-
=32	=32	=32	=32	=32	=32	=32	=32	=32	=32
2C	.	2E	-spi-	1.c	-e-	2r	.	4g]	.
.	.	.	.	.	.	.	.	4g	.
2r	.	2.F	-ra-	.	.	4.A	-spi-	2a	-ra-
.	.	.	.	.	.	8B-y	.	.	.
2FF	.	.	.	.	.	2c	.	8aL	.
.	.	.	.	.	.	.	.	8g	.
.	.	4A	.	.	.	.	.	8f	.
.	.	.	.	.	.	.	.	8eJ	.
=33	=33	=33	=33	=33	=33	=33	=33	=33	=33
*lig	*	*	*	*lig	*	*	*	*	*
2GG	.	4B-y	.	2B-y	-bus	4r	.	4d	.
*	*	*	*	*	*	*col	*	*	*
.	.	4G	.	.	.	4.d	-ra-	4g	.
1D	.	4.D	.	1A	no-	.	.	8aL	.
*Xlig	*	*	*	*Xlig	*	*	*	*	*
.	.	.	.	.	.	8e	.	8g	.
*	*	*	*	*	*	*Xcol	*	*	*
.	.	.	.	.	.	4f	.	8f	.
.	.	8E	.	.	.	.	.	8eJ	.
.	.	4F#i	.	.	.	2d	.	2f#i	.
.	.	4D	.	.	.	.	.	.	.
!!LO:LB:g=original
=34	=34	=34	=34	=34	=34	=34	=34	=34	=34
1.GG	-mus;	1D	-mus;	1.G	-stris,	2.B-y	.	1.g	-mus;
.	.	.	.	.	.	4G	.	.	.
.	.	2r	.	.	.	2G	-mus;	.	.
=35	=35	=35	=35	=35	=35	=35	=35	=35	=35
1.r	.	2D	ad	1.r	.	1.r	.	1r	.
.	.	4E	.	.	.	.	.	.	.
.	.	2F	cle-	.	.	.	.	.	.
.	.	.	.	.	.	.	.	2d	ad
.	.	4D	.	.	.	.	.	.	.
=36	=36	=36	=36	=36	=36	=36	=36	=36	=36
1.r	.	4C	.	1.r	.	1.r	.	4e	.
*	*	*col	*	*	*	*	*	*	*
.	.	4.D	-men-	.	.	.	.	2f	cle-
.	.	8EL	.	.	.	.	.	.	.
*	*	*Xcol	*	*	*	*	*	*	*
.	.	8F	.	.	.	.	.	4d	.
.	.	8GJ	.	.	.	.	.	.	.
.	.	4A	-ci-	.	.	.	.	4c	.
.	.	4B-y	.	.	.	.	.	[4d	-men-
=37	=37	=37	=37	=37	=37	=37	=37	=37	=37
1.r	.	4G	-am	1.r	.	1.r	.	8d]L	.
.	.	.	.	.	.	.	.	8e	.
.	.	4A	.	.	.	.	.	8f	.
.	.	.	.	.	.	.	.	8gJ	.
.	.	4F	tu-	.	.	.	.	4a	-ci-
*	*	*col	*	*	*	*	*	*	*
.	.	4.G	.	.	.	.	.	4b-y	.
.	.	.	.	.	.	.	.	2g	-am
.	.	8FL	.	.	.	.	.	.	.
*	*	*Xcol	*	*	*	*	*	*	*
.	.	8E	.	.	.	.	.	.	.
.	.	8DJ	.	.	.	.	.	.	.
=38	=38	=38	=38	=38	=38	=38	=38	=38	=38
1.r	.	4C	.	1.r	.	1.r	.	4e	tu-
.	.	2G	.	.	.	.	.	4d	.
.	.	.	.	.	.	.	.	4B-y	.
.	.	4E	.	.	.	.	.	2c	.
.	.	2F	-am	.	.	.	.	.	.
.	.	.	.	.	.	.	.	4A	.
!!LO:PB:g=original
=39	=39	=39	=39	=39	=39	=39	=39	=39	=39
4r	.	1.r	.	1.r	.	4.G	o-	2G	-am.
2G	o-	.	.	.	.	.	.	.	.
.	.	.	.	.	.	8A	.	.	.
.	.	.	.	.	.	4B-y	-cu-	2r	.
4E	-cu-	.	.	.	.	2c	-los	.	.
2F	-los	.	.	.	.	.	.	2r	.
.	.	.	.	.	.	4A	.	.	.
=40	=40	=40	=40	=40	=40	=40	=40	=40	=40
4.GG	non	1.r	.	1.r	.	4B-y	non	2%3r	.
.	.	.	.	.	.	2G	si-	.	.
8AA	.	.	.	.	.	.	.	.	.
4BB-y	si-	.	.	.	.	.	.	.	.
2C	-ne	.	.	.	.	4G	-ne-	.	.
.	.	.	.	.	.	4E	-spe	.	.
4AA	.	.	.	.	.	4F	.	.	.
=41	=41	=41	=41	=41	=41	=41	=41	=41	=41
4BB-y	spe	1.r	.	1.r	.	2G	e-	1.r	.
2GG	e-	.	.	.	.	.	.	.	.
.	.	.	.	.	.	4D	-ri-	.	.
4C	-ri-	.	.	.	.	4E	.	.	.
4AA	.	.	.	.	.	4F	.	.	.
4BB-y	.	.	.	.	.	[4G	.	.	.
=42	=42	=42	=42	=42	=42	=42	=42	=42	=42
2C	.	1.r	.	1.r	.	4G]	.	1.r	.
.	.	.	.	.	.	4A	.	.	.
4GG	.	.	.	.	.	4B-y	.	.	.
4AA	.	.	.	.	.	4c	.	.	.
4BB-y	.	.	.	.	.	2d	.	.	.
[4C	.	.	.	.	.	.	.	.	.
!!LO:LB:g=original
=43	=43	=43	=43	=43	=43	=43	=43	=43	=43
4C]	.	1.r	.	1.r	.	4c	.	1.r	.
2D	.	.	.	.	.	8B-y	.	.	.
.	.	.	.	.	.	4A	.	.	.
.	.	.	.	.	.	8G	.	.	.
4BB-y	.	.	.	.	.	2G	-gi-	.	.
2AA	-gi-	.	.	.	.	.	.	.	.
.	.	.	.	.	.	4F#i	.	.	.
=44	=44	=44	=44	=44	=44	=44	=44	=44	=44
*	*	*	*	*lig	*	*	*	*	*
1GG	-mus.	1D	Te	[1.B-y	qui-	1G	-mus.	2r	.
.	.	.	.	.	.	.	.	1g	Te
2r	.	4E-X	mi-	.	.	4r	.	.	.
.	.	4E-	-se-	.	.	4G	Te	.	.
=45	=45	=45	=45	=45	=45	=45	=45	=45	=45
2r	.	4D	-ri-	1.B-]	.	4d	mi-	4f	mi-
.	.	2E-i	-cor-	.	.	4B-y	-se-	2g	-se-
2r	.	.	.	.	.	2G	-ri-	.	.
.	.	8DL	.	.	.	.	.	8fL	-ri-
.	.	8CJ	-di-	.	.	.	.	8e-iJ	.
2GG	Te	2BB-y	-e	.	.	2d	-cor-	4d	-cor-
.	.	.	.	.	.	.	.	4g	-di-
=46	=46	=46	=46	=46	=46	=46	=46	=46	=46
1D	mi-	2r	.	1.A	-a	4.d	-di-	4.f	-e
*	*	*	*	*Xlig	*	*	*	*	*
.	.	.	.	.	.	8e	-e	8g	.
.	.	2F	ma-	.	.	4.f	ma-	2.a	ma-
.	.	.	.	.	.	8e	.	.	.
2F	-se-	4.A	-trem	.	.	2c	-trem	.	.
.	.	.	.	.	.	.	.	8gL	.
.	.	8B-y	.	.	.	.	.	8fJ	.
!!LO:LB:g=original
=47	=47	=47	=47	=47	=47	=47	=47	=47	=47
1C	-ri-	2c	.	1G	non	2r	.	1e	-trem
.	.	4r	.	.	.	2c	et	.	.
.	.	4C	et	.	.	.	.	.	.
4AA	-cor-	4.E	pau-	2A	est	2c	pau-	2e	et
4C	-di-	.	.	.	.	.	.	.	.
.	.	8F	.	.	.	.	.	.	.
=48	=48	=48	=48	=48	=48	=48	=48	=48	=48
*	*	*	*	*lig	*	*	*	*	*
*	*	*	*	*col	*	*	*	*	*
2GG	-e	4.G	.	1B-y	a-	4.B-y	-pe-	4.d	pau-
.	.	8F	.	.	.	16ALL	.	8e	.
.	.	.	.	.	.	16GJJ	.	.	.
2r	.	2D	.	.	.	2F	-rum	2f	.
*	*	*lig	*	*	*	*	*	*	*
2r	.	2C	-pe-	[2c	.	2G	ad-	4e	.
.	.	.	.	.	.	.	.	[4g	-pe-
=49	=49	=49	=49	=49	=49	=49	=49	=49	=49
2C	pau-	2E	.	2c]	.	4.G	-vo-	4g]	.
*	*	*Xlig	*	*	*	*	*	*	*
.	.	.	.	.	.	.	.	4e	.
.	.	.	.	.	.	8A	.	.	.
1BB-y	-pe-	1D	-rum	1d	.	1B-y	-ca-	2f	-rum
*	*	*	*	*Xlig	*	*	*	*	*
*	*	*	*	*Xcol	*	*	*	*	*
.	.	.	.	.	.	.	.	2f	ad-
=50	=50	=50	=50	=50	=50	=50	=50	=50	=50
1C	-rum	2r	.	1.c	-li-	2G	-tam	4.e	-vo-
.	.	.	.	.	.	.	.	8f	.
.	.	4.E	ad-	.	.	2r	.	4g	-ca-
.	.	.	.	.	.	.	.	4a	.
.	.	8F	.	.	.	.	.	.	.
2E	ad-	4G	-vo-	.	.	2r	.	4g	.
.	.	4C	-ca-	.	.	.	.	[4cc	.
!!LO:PB:g=original
=51	=51	=51	=51	=51	=51	=51	=51	=51	=51
2D	-vo-	2F	.	2d	.	2r	.	4cc]	.
.	.	.	.	.	.	.	.	4bnj	.
*	*	*	*	*	*	*	*	*col	*
1C	-ca-	1G	-tam	1e	.	2r	.	1cc	-tam
*	*	*	*	*	*	*	*	*Xcol	*
.	.	.	.	.	.	2c	cor-	.	.
=52	=52	=52	=52	=52	=52	=52	=52	=52	=52
1.D	-tam	2r	.	1.d	-us	2A	-de	1f	cor-
.	.	1A	cor-	.	.	4A	et	.	.
.	.	.	.	.	.	2d	o-	.	.
.	.	.	.	.	.	.	.	2f	-de
.	.	.	.	.	.	4d	-re	.	.
=53	=53	=53	=53	=53	=53	=53	=53	=53	=53
1.r	.	4G	-de	1.r	.	4B-y	con-	2g	et
*	*	*	*edit	*	*	*	*	*	*
.	.	4E	et	.	.	4c	.	.	.
.	.	4F	o-	.	.	4A	.	4a	.
.	.	4BB-y	-re	.	.	4d	.	2b-y	o-
*	*	*	*Xedit	*	*	*	*	*	*
.	.	2F	con-	.	.	2c	.	.	.
.	.	.	.	.	.	.	.	4a	-re
=54	=54	=54	=54	=54	=54	=54	=54	=54	=54
2GG	con-	4G	-fi-	1.r	.	4.B-y	-fi-	4g	con-
.	.	2d	-te-	.	.	.	.	2b-y	-fi-
.	.	.	.	.	.	8c	.	.	.
4BB-y	-fi-	.	.	.	.	4d	-te-	.	.
4C	.	8cL	.	.	.	4e-i	.	2g	-te-
.	.	8B-yJ	.	.	.	.	.	.	.
2D	-te-	2A	.	.	.	2d	.	.	.
.	.	.	.	.	.	.	.	4f#i	.
!!LO:LB:g=original
=55	=55	=55	=55	=55	=55	=55	=55	=55	=55
*	*	*	*	*lig	*	*	*	*	*
*	*	*	*	*col	*	*	*	*	*
1GG	-mur;	1G	-mur;	[1.d	qui	2B-y	-mur;	1g	-mur;
.	.	.	.	.	.	4B-y	.	.	.
.	.	.	.	.	.	4G	.	.	.
2GG	per	2G	per	.	.	2D	.	2b-y	per
=56	=56	=56	=56	=56	=56	=56	=56	=56	=56
2BB-y	te	2D	te	2d]	.	2r	.	4.f	te
.	.	.	.	.	.	.	.	8g	.
2AA	nam-	2E	nam-	1c	.	2A	per	8aL	.
*	*	*	*	*Xlig	*	*	*	*	*
*	*	*	*	*Xcol	*	*	*	*	*
.	.	.	.	.	.	.	.	8b-yJ	.
.	.	.	.	.	.	.	.	4.cc	.
2C	-que	2E	-que	.	.	2G	te	.	.
.	.	.	.	.	.	.	.	8b-y	.
.	.	.	.	.	.	.	.	4g	.
=57	=57	=57	=57	=57	=57	=57	=57	=57	=57
2r	.	2D	.	2.d	pu-	4A	nam-	2f	nam-
.	.	.	.	.	.	4.B-y	.	.	.
4BB-y	pax	2r	.	.	.	.	.	4f	.
.	.	.	.	.	.	8cL	.	.	.
4GG	.	.	.	4B-y	.	8d	.	2b-y	-que
.	.	.	.	.	.	8eJ	.	.	.
2FF	.	2F	pax	2c	-gnet	2f	-que	.	.
.	.	.	.	.	.	.	.	4a	.
=58	=58	=58	=58	=58	=58	=58	=58	=58	=58
*	*	*	*	*lig	*	*	*	*	*
1.r	.	2.G	no-	[1.B-y	ni-	1d	pax	1b-y	pax
.	.	8FL	.	.	.	.	.	.	.
.	.	8EJ	.	.	.	.	.	.	.
.	.	4D	.	.	.	4d	no-	4f	no-
.	.	4G	.	.	.	4B-y	.	4g	.
!!LO:LB:g=original
=59	=59	=59	=59	=59	=59	=59	=59	=59	=59
2BB-y	no-	2F	-stra	1.B-]	.	2f	-stra	1d	-stra
4BB-y	.	4F	.	.	.	2r	.	.	.
4GG	-stra	4.G	.	.	.	.	.	.	.
4.BB-y	a-	.	.	.	.	2r	.	4.d	a-
.	.	8F	.	.	.	.	.	.	.
.	.	4D	.	.	.	.	.	.	.
8C	.	.	.	.	.	.	.	8e	.
=60	=60	=60	=60	=60	=60	=60	=60	=60	=60
1D	-pud	2r	.	1.A	-si	1d	a-	2f	-pud
.	.	2.F	a-	.	.	.	.	2r	.
2AA	De-	.	.	.	.	2c	-pud	2a	De-
.	.	4F	-pud	.	.	.	.	.	.
=61	=61	=61	=61	=61	=61	=61	=61	=61	=61
1GG	-um	1G	De-	1B-y	tu,	4B-y	De-	4d	.
*	*	*	*	*Xlig	*	*	*	*	*
.	.	.	.	.	.	4G	.	2g	.
.	.	.	.	.	.	4.D	.	.	.
.	.	.	.	.	.	.	.	4b-y	.
.	.	.	.	.	.	8E	.	.	.
2FF	ef-	2C	-um	2c	De-	2F	-um	2a	-um
=62	=62	=62	=62	=62	=62	=62	=62	=62	=62
*	*	*	*	*lig	*	*	*	*	*
1GG	-fe-	4r	.	1.B-y	-us	4D	ef-	2.g	ef-
.	.	4.D	ef-	.	.	4.G	-fec-	.	.
.	.	8E	.	.	.	8A	.	.	.
.	.	4D	-fec-	.	.	4.B-y	.	8fL	.
.	.	.	.	.	.	.	.	8eJ	.
2GG	-cta	2G	.	.	.	.	.	4d	-fec-
.	.	.	.	.	.	8c	.	.	.
.	.	.	.	.	.	[4d	.	4g	.
!!LO:PB:g=original
=63	=63	=63	=63	=63	=63	=63	=63	=63	=63
2D	est,	4A	.	1.A	no-	4d]	.	4f	.
.	.	4.F	.	.	.	4d	.	4.a	.
2r	.	.	.	.	.	4c	.	.	.
.	.	16ELL	.	.	.	.	.	8g	.
.	.	16DJJ	.	.	.	.	.	.	.
.	.	4C	.	.	.	4e-i	.	2g	.
2r	.	2D	-ta	.	.	2d	-ta	.	.
.	.	.	.	.	.	.	.	4f#i	-ta
=64	=64	=64	=64	=64	=64	=64	=64	=64	=64
*	*	*	*	*	*	*	*	*col	*
2GG	ut	2D	est,	[1.G	-ster.	4.B-y	est,	1g	est,
.	.	.	.	.	.	16cLL	.	.	.
.	.	.	.	.	.	16dJJ	.	.	.
2C	di-	2r	.	.	.	2e-i	ut	.	.
4BB-y	.	4D	ut	.	.	4d	di-	2r	.
4C	.	4C	.	.	.	4e-i	.	.	.
=65	=65	=65	=65	=65	=65	=65	=65	=65	=65
4BB-y	.	4D	di-	1.G]	.	4d	.	2r	.
*	*	*	*	*Xlig	*	*	*	*	*
2C	.	4.G	.	.	.	2e-i	.	.	.
.	.	.	.	.	.	.	.	1g	ut
*	*	*	*	*	*	*	*	*Xcol	*
.	.	8AL	.	.	.	.	.	.	.
4BB-y	.	8B-y	.	.	.	4d	.	.	.
.	.	8cJ	.	.	.	.	.	.	.
*	*	*col	*	*	*	*	*	*	*
2GG	-gne	[2d	-gne	.	.	2B-y	-gne	.	.
=66	=66	=66	=66	=66	=66	=66	=66	=66	=66
1D	tem-	1.d]	.	1.r	.	1A	tem-	2f	di-
*	*	*Xcol	*	*	*	*	*	*	*
.	.	.	.	.	.	.	.	2f	-gne
2GG	-plum	.	.	.	.	2B-y	-plum	4.g	tem-
.	.	.	.	.	.	.	.	8f	.
!!LO:LB:g=original
=67	=67	=67	=67	=67	=67	=67	=67	=67	=67
4AA	pa-	4c	tem-	1.r	.	4c	pa-	4e	.
4BB-y	.	4d	.	.	.	4B-y	.	4d	.
4C	.	4G	-plum	.	.	4e-i	.	4c	-plum
4D	.	4F	.	.	.	2d	.	4r	.
2AA	-cis	2E	pa-	.	.	.	.	2cc	pa-
.	.	.	.	.	.	4c	-cis	.	.
=68	=68	=68	=68	=68	=68	=68	=68	=68	=68
8BB-yL	di-	4D	-cis	1.r	.	1d	di-	4b-y	.
8CJ	.	.	.	.	.	.	.	.	.
4D	.	4F	.	.	.	.	.	2a	-cis
4BB-y	.	4G	di-	.	.	.	.	.	.
4GG	.	4B-y	.	.	.	.	.	2g	di-
2D	-ci	2A	-ci	.	.	2d	-ci	.	.
.	.	.	.	.	.	.	.	4f#i	.
=69	=69	=69	=69	=69	=69	=69	=69	=69	=69
4.GG	va-	4r	.	1.r	.	4.B-y	va-	4g	-ci
.	.	2G	va-	.	.	.	.	2b-y	va-
8AA	.	.	.	.	.	8c	.	.	.
8BB-yL	.	.	.	.	.	8dL	.	.	.
8CJ	.	.	.	.	.	8e-jJ	.	.	.
4D	.	4F	.	.	.	4f	.	4a	.
2E-i	-le-	2G	-le-	.	.	4e-i	-le-	4.g	-le-
.	.	.	.	.	.	4c	.	.	.
.	.	.	.	.	.	.	.	8e-i	.
=70	=70	=70	=70	=70	=70	=70	=70	=70	=70
1.Dl	-as.	1.Al	-as.	1.r	.	1.dl	-as.	1.fl	-as.
!!LO:LB:g=original
!!LO:TX:t=[whole] = [whole-dot]
=71||	=71||	=71||	=71||	=71||	=71||	=71||	=71||	=71||	=71||
*>B	*>B	*>B	*>B	*>B	*>B	*>B	*>B	*>B	*>B
*M2/2	*	*M2/2	*	*M2/2	*	*M2/2	*	*M2/2	*
*omet(C|)	*	*omet(C|)	*	*omet(C|)	*	*omet(C|)	*	*omet(C|)	*
!!section: Rogamus
1GG	Ro-	1B-y	Ro-	1r	.	1d	Ro-	1g	Ro-
=72	=72	=72	=72	=72	=72	=72	=72	=72	=72
2GG	-ga-	2B-y	-ga-	1r	.	2d	-ga-	2g	-ga-
2GG	-mus	2B-y	-mus	.	.	2d	-mus	2g	-mus
=73	=73	=73	=73	=73	=73	=73	=73	=73	=73
2.D	te	2.A	te	1r	.	2.d	te	2.f	te
4D	pi-	4A	pi-	.	.	4d	pi-	4f	pi-
=74	=74	=74	=74	=74	=74	=74	=74	=74	=74
2D	-is-	2A	-is-	1r	.	2d	-is-	2f	-is-
2D	-si-	2A	-si-	.	.	2d	-si-	2f	-si-
=75	=75	=75	=75	=75	=75	=75	=75	=75	=75
2GG	-me	2B-y	-me	1r	.	2d	-me	2g	-me
2GG	vir-	2B-y	vir-	.	.	2d	vir-	2g	vir-
=76	=76	=76	=76	=76	=76	=76	=76	=76	=76
1C	-go	1G	-go	1r	.	2.c	-go	1g	-go
.	.	.	.	.	.	4c	pro	.	.
!!LO:PB:g=original
=77	=77	=77	=77	=77	=77	=77	=77	=77	=77
*	*	*	*	*	*	*	*edit	*	*
1C	pro	2G	pro	1r	.	2c	In-	1e	pro
*	*	*	*edit	*	*	*	*	*	*
.	.	2A	In-	.	.	2c	-no-	.	.
=78	=78	=78	=78	=78	=78	=78	=78	=78	=78
*	*edit	*	*	*	*	*	*	*	*edit
2BB-y	In-	1B-y	-no-	1r	.	[1F	-cen-	2d	In-
2BB-y	-no-	.	.	.	.	.	.	2d	-no-
=79	=79	=79	=79	=79	=79	=79	=79	=79	=79
1FF	-cen-	2A	-cen-	1r	.	2F]	.	1c	-cen-
.	.	2A	-ti-	.	.	2F	-ti-	.	.
=80	=80	=80	=80	=80	=80	=80	=80	=80	=80
2GG	-ti-	2G	-o	1r	.	2D	-o	2B-y	-ti-
*	*	*	*Xedit	*	*	*	*Xedit	*	*
2GG	-o	4D	pa-	.	.	2G	pa-	2B-y	-o
.	.	4E	.	.	.	.	.	.	.
=81	=81	=81	=81	=81	=81	=81	=81	=81	=81
*	*Xedit	*	*	*	*	*	*	*	*Xedit
*	*	*col	*	*	*	*	*	*	*
1BB-y	pa-	4.D	-pa	1r	.	4F	-pa	1d	pa-
.	.	.	.	.	.	4G	.	.	.
.	.	8E	.	.	.	.	.	.	.
*	*	*Xcol	*	*	*	*	*	*	*
.	.	4F	no-	.	.	4F	no-	.	.
.	.	[4G	.	.	.	[4B-y	.	.	.
=82	=82	=82	=82	=82	=82	=82	=82	=82	=82
2BB-y	-pa	4G]	.	1r	.	4B-]	.	2d	-pa
.	.	8FL	.	.	.	8AL	.	.	.
.	.	8EJ	.	.	.	8GJ	.	.	.
2BB-y	no-	2D	.	.	.	4F	.	2d	no-
.	.	.	.	.	.	4G	.	.	.
!!LO:LB:g=original
=83	=83	=83	=83	=83	=83	=83	=83	=83	=83
1AA	-stro,	1E	-stro,	1r	.	4.A	.	1c	-stro,
.	.	.	.	.	.	8G	.	.	.
.	.	.	.	.	.	2E	.	.	.
=84	=84	=84	=84	=84	=84	=84	=84	=84	=84
1r	.	1r	.	1r	.	2D	-stro,	2d	que
.	.	.	.	.	.	2r	.	4e	tu-
.	.	.	.	.	.	.	.	4g	.
=85	=85	=85	=85	=85	=85	=85	=85	=85	=85
1r	.	2D	que	1r	.	1r	.	2f	-is
.	.	4E	tu-	.	.	.	.	2e	al-
.	.	4G	.	.	.	.	.	.	.
=86	=86	=86	=86	=86	=86	=86	=86	=86	=86
1r	.	2F	-is	1r	.	1r	.	4f	-tis-
.	.	.	.	.	.	.	.	4a	.
.	.	2E	al-	.	.	.	.	2g	-si-
=87	=87	=87	=87	=87	=87	=87	=87	=87	=87
1r	.	4F	-tis-	1r	.	1r	.	2f	-mis
.	.	4A	.	.	.	.	.	.	.
.	.	2G	-si-	.	.	.	.	4g	me-
.	.	.	.	.	.	.	.	4b-y	.
=88	=88	=88	=88	=88	=88	=88	=88	=88	=88
2r	.	2F	-mis	1r	.	1r	.	2a	-ri-
2GG	que	4G	me-	.	.	.	.	2g	.
.	.	4B-y	.	.	.	.	.	.	.
!!LO:LB:g=original
=89	=89	=89	=89	=89	=89	=89	=89	=89	=89
4AA	tu-	2A	-ri-	1r	.	2r	.	4e	-tis
4C	.	.	.	.	.	.	.	4c	.
2BB-y	-is	4G	-tis,	.	.	2G	que	4r	.
.	.	4D	.	.	.	.	.	[4d	et
=90	=90	=90	=90	=90	=90	=90	=90	=90	=90
2AA	al-	2E	et	1r	.	4A	tu-	4d]	.
.	.	.	.	.	.	4c	.	4c	.
4BB-y	-tis-	4D	pre-	.	.	2B-y	-is	2d	.
4D	.	4F	.	.	.	.	.	.	.
=91	=91	=91	=91	=91	=91	=91	=91	=91	=91
2C	-si-	2E	.	1r	.	2A	al-	4r	.
.	.	.	.	.	.	.	.	4e	pre-
2BB-y	-mis	2F	.	.	.	4B-y	-tis-	2d	.
.	.	.	.	.	.	4d	.	.	.
=92	=92	=92	=92	=92	=92	=92	=92	=92	=92
4C	me-	4E	.	1r	.	2c	-si-	2e	.
4E	-ri-	4G	.	.	.	.	.	.	.
2D	-tis	2F	.	.	.	2B-y	-mis	4r	.
.	.	.	.	.	.	.	.	[4f	-ci-
=93	=93	=93	=93	=93	=93	=93	=93	=93	=93
2C	et	2G	.	1r	.	4c	me-	4f]	.
.	.	.	.	.	.	4e	-ri-	4e	.
2D	pre-	4F	.	.	.	2d	-tis	2f	.
.	.	4A	.	.	.	.	.	.	.
=94	=94	=94	=94	=94	=94	=94	=94	=94	=94
1E	-ci-	4G	-ci-	1r	.	2c	et	4r	.
.	.	4C	.	.	.	.	.	2g	-bus
.	.	2G	.	.	.	4c	pre-	.	.
.	.	.	.	.	.	4c	-ci-	8fL	.
.	.	.	.	.	.	.	.	8eJ	.
!!LO:PB:g=original
=95	=95	=95	=95	=95	=95	=95	=95	=95	=95
1D	-bus	1A	-bus	1r	.	1d	-bus	1f	.
=96	=96	=96	=96	=96	=96	=96	=96	=96	=96
1r	.	1r	.	1r	.	1e	mun-	1g	mun-
=97	=97	=97	=97	=97	=97	=97	=97	=97	=97
1r	.	1r	.	1r	.	2e	-do	2g	-do
.	.	.	.	.	.	[2d	pa-	4.f	pa-
.	.	.	.	.	.	.	.	8g	.
=98	=98	=98	=98	=98	=98	=98	=98	=98	=98
1r	.	1r	.	1r	.	2d]	.	4a	.
.	.	.	.	.	.	.	.	2b-y	-cem
.	.	.	.	.	.	2c	-cem	.	.
.	.	.	.	.	.	.	.	[4a	con-
=99	=99	=99	=99	=99	=99	=99	=99	=99	=99
1r	.	1r	.	1r	.	2B-y	con-	4a]	.
.	.	.	.	.	.	.	.	4g	-tu-
.	.	.	.	.	.	4A	-tu-	4a	-li-
*	*	*	*	*	*	*col	*	*	*
.	.	.	.	.	.	[4d	-li-	[4b-y	.
=100	=100	=100	=100	=100	=100	=100	=100	=100	=100
1r	.	1r	.	1r	.	8d]L	.	8b-]L	.
.	.	.	.	.	.	8c	.	8a	.
*	*	*	*	*	*	*Xcol	*	*	*
.	.	.	.	.	.	8B-y	.	8g	.
.	.	.	.	.	.	8AJ	.	8fJ	.
.	.	.	.	.	.	2B-y	-sti,	2g	-sti,
!!LO:LB:g=original
=101	=101	=101	=101	=101	=101	=101	=101	=101	=101
1r	.	1D	ut	1r	.	1A	ut	1f	ut
=102	=102	=102	=102	=102	=102	=102	=102	=102	=102
1GG	ut	1D	si-	[1G	Da	2B-y	si-	2g	si-
.	.	.	.	.	.	2B-y	-bi	[2b-y	-bi
=103	=103	=103	=103	=103	=103	=103	=103	=103	=103
*	*	*lig	*	*	*	*	*	*	*
2BB-y	si-	2D	.	1G]	.	2d	pla-	2b-]	.
2C	.	2E	.	.	.	[2c	-ca-	2g	pla-
*	*	*Xlig	*	*	*	*	*	*	*
=104	=104	=104	=104	=104	=104	=104	=104	=104	=104
1AA	.	1C	.	1F	pa-	2c]	.	1a	-ca-
.	.	.	.	.	.	2A	.	.	.
=105	=105	=105	=105	=105	=105	=105	=105	=105	=105
1GG	-bi	1D	-bi	1G	-cem	1B-y	-bi-	1d	-bi-
=106	=106	=106	=106	=106	=106	=106	=106	=106	=106
1r	.	1r	.	1r	.	2A	-lem	2f	-lem
.	.	.	.	.	.	4c	u-	4e	u-
.	.	.	.	.	.	4B-y	-ni-	4g	-ni-
!!LO:LB:g=original
=107	=107	=107	=107	=107	=107	=107	=107	=107	=107
1r	.	1r	.	1r	.	4d	-ge-	4f	-ge-
.	.	.	.	.	.	4c	-ni-	4a	-ni-
.	.	.	.	.	.	4e	-tum	4g	-tum
*	*	*	*	*	*	*	*	*col	*
.	.	.	.	.	.	[4d	tu-	[4b-y	tu-
=108	=108	=108	=108	=108	=108	=108	=108	=108	=108
1r	.	1r	.	1r	.	4d]	.	8b-]L	.
.	.	.	.	.	.	.	.	8aJ	.
*	*	*	*	*	*	*	*	*Xcol	*
.	.	.	.	.	.	4B-y	.	2g	.
.	.	.	.	.	.	2A	.	.	.
.	.	.	.	.	.	.	.	4f#i	.
=109	=109	=109	=109	=109	=109	=109	=109	=109	=109
1GG	ac	1D	ac	[1B-y	Do-	2G	-um	1g	-um
.	.	.	.	.	.	4r	.	.	.
.	.	.	.	.	.	4G	ac	.	.
=110	=110	=110	=110	=110	=110	=110	=110	=110	=110
1GG	pi-	2.D	pi-	1B-]	.	2d	pi-	2g	ac
.	.	.	.	.	.	2B-y	.	2g	pi-
.	.	4E	.	.	.	.	.	.	.
=111	=111	=111	=111	=111	=111	=111	=111	=111	=111
2FF	-is-	2F	-is-	1c	-mi-	1A	-is-	1a	-is-
2FF	-si-	2F	-si-	.	.	.	.	.	.
=112	=112	=112	=112	=112	=112	=112	=112	=112	=112
*	*	*	*	*	*	*	*	*lig	*
2.GG	-mum	[1D	-mum	[1B-y	-ne,	2G	-si-	2b-y	-si-
.	.	.	.	.	.	2G	-mum	2g	.
*	*	*	*	*	*	*	*	*Xlig	*
4AA	.	.	.	.	.	.	.	.	.
!!LO:PB:g=original
=113	=113	=113	=113	=113	=113	=113	=113	=113	=113
1BB-y	.	1D]	.	1B-]	.	2F	re-	1d	-mum
.	.	.	.	.	.	2F	-dem-	.	.
=114	=114	=114	=114	=114	=114	=114	=114	=114	=114
1r	.	1r	.	1r	.	1E	-pto-	4.c	re-
.	.	.	.	.	.	.	.	8d	.
.	.	.	.	.	.	.	.	8eL	-dem-
.	.	.	.	.	.	.	.	8fJ	.
.	.	.	.	.	.	.	.	4g	.
=115	=115	=115	=115	=115	=115	=115	=115	=115	=115
1r	.	1r	.	1r	.	4D	.	4f	-pto-
*	*	*	*	*	*	*col	*	*	*
.	.	.	.	.	.	4.F	.	2a	.
.	.	.	.	.	.	8G	.	.	.
*	*	*	*	*	*	*Xcol	*	*	*
.	.	.	.	.	.	[4A	.	8gL	.
.	.	.	.	.	.	.	.	8fJ	.
=116	=116	=116	=116	=116	=116	=116	=116	=116	=116
1r	.	1r	.	1r	.	4A]	.	2e	.
.	.	.	.	.	.	4G	.	.	.
.	.	.	.	.	.	4A	.	4f	.
.	.	.	.	.	.	4F	.	4d	.
=117	=117	=117	=117	=117	=117	=117	=117	=117	=117
1AA	re-	2A	re-	[1A	in	[1E	-rem	2c	-rem
.	.	[2c	-dem-	.	.	.	.	4.e	no-
.	.	.	.	.	.	.	.	8f	.
=118	=118	=118	=118	=118	=118	=118	=118	=118	=118
1AA	-dem-	4c]	.	1A_	.	1E]	.	4e	.
*	*	*	*	*	*	*	*	*col	*
.	.	2c	-pto-	.	.	.	.	4.a	.
.	.	.	.	.	.	.	.	8g	.
*	*	*	*	*	*	*	*	*Xcol	*
.	.	[4A	.	.	.	.	.	[4e	.
!!LO:LB:g=original
=119	=119	=119	=119	=119	=119	=119	=119	=119	=119
2AA	-pto-	4A]	.	1A]	.	2r	.	4e]	.
.	.	4F	.	.	.	.	.	2d	.
2AA	-rem	2E	.	.	.	2A	no-	.	.
.	.	.	.	.	.	.	.	4c#i	.
=120	=120	=120	=120	=120	=120	=120	=120	=120	=120
1BB-y	no-	2D	-rem	1r	.	2F	.	2d	-strum
.	.	[2G	no-	.	.	2D	-strum	2B-y	fa-
=121	=121	=121	=121	=121	=121	=121	=121	=121	=121
1C	-strum	4G]	.	1r	.	2r	.	2e-i	-ci-
.	.	4F	.	.	.	.	.	.	.
.	.	2E-i	.	.	.	2G	fa-	2c	.
=122	=122	=122	=122	=122	=122	=122	=122	=122	=122
*	*	*	*	*	*	*col	*	*lig	*
2BB-y	fa-	2D	-strum	1B-y	di-	4.B-y	-ci-	2d	.
.	.	.	.	.	.	8c	.	.	.
*	*	*	*	*	*	*Xcol	*	*	*
2GG	.	[2G	fa	.	.	4.d	.	2B-y	.
.	.	.	.	.	.	8e-j	.	.	.
=123	=123	=123	=123	=123	=123	=123	=123	=123	=123
1AA	-ci-	2G]	.	1c	-e-	2f	-as,	1A	-as,
*	*	*	*	*	*	*	*	*Xlig	*
.	.	2F#i	ci-	.	.	2r	.	.	.
=124	=124	=124	=124	=124	=124	=124	=124	=124	=124
*	*	*	*	*	*	*	*edit	*	*
1GG	-as,	1G	-as,	2B-y	-bus	1d	et	1r	.
.	.	.	.	2G	.	.	.	.	.
!!LO:LB:g=original
=125	=125	=125	=125	=125	=125	=125	=125	=125	=125
1r	.	1D	et	1A	no-	2d	ec-	1a	ec-
.	.	.	.	.	.	2d	-cle-	.	.
=126	=126	=126	=126	=126	=126	=126	=126	=126	=126
*	*	*	*	*	*	*lig	*	*	*
2GG	et	2D	ec-	[1G	-stris,	1B-y	-si-	2.b-y	-cle-
2GG	ec-	2D	-cle-	.	.	.	.	.	.
.	.	.	.	.	.	.	.	4g	-si-
=127	=127	=127	=127	=127	=127	=127	=127	=127	=127
2C	-cle-	2.E	-si-	1G]	.	1c	-e	1g	-e
*	*	*	*	*	*	*Xlig	*	*	*
4.C	-si-	.	.	.	.	.	.	.	.
.	.	4F	.	.	.	.	.	.	.
8D	.	.	.	.	.	.	.	.	.
=128	=128	=128	=128	=128	=128	=128	=128	=128	=128
2E	-e	2G	-e	1r	.	1r	.	1r	.
2F	san-	2A	san-	.	.	.	.	.	.
=129	=129	=129	=129	=129	=129	=129	=129	=129	=129
4E	.	4G	.	1r	.	1r	.	1r	.
*	*	*col	*	*	*	*	*	*	*
4D	.	4.B-y	.	.	.	.	.	.	.
4G	.	.	.	.	.	.	.	.	.
.	.	8A	.	.	.	.	.	.	.
*	*	*Xcol	*	*	*	*	*	*	*
4E	.	[4c	.	.	.	.	.	.	.
=130	=130	=130	=130	=130	=130	=130	=130	=130	=130
*col	*	*	*	*	*	*	*	*	*
4.F	.	8c]L	.	1r	.	1r	.	1r	.
.	.	8B-y	.	.	.	.	.	.	.
.	.	8A	.	.	.	.	.	.	.
8G	.	8GJ	.	.	.	.	.	.	.
*Xcol	*	*	*	*	*	*	*	*	*
2D	-cte	4A	-cte	.	.	.	.	.	.
.	.	[4B-y	i-	.	.	.	.	.	.
!!LO:PB:g=original
=131	=131	=131	=131	=131	=131	=131	=131	=131	=131
4D	i-	4B-]	.	1r	.	1r	.	1r	.
4BB-y	-ni-	2G	-ni-	.	.	.	.	.	.
2AA	-mi-	.	.	.	.	.	.	.	.
.	.	4F#i	-mi-	.	.	.	.	.	.
=132	=132	=132	=132	=132	=132	=132	=132	=132	=132
*	*	*	*	*	*	*	*Xedit	*	*
2GG	-cos	2G	-cos	[1B-y	qui-	1d	ad	2.g	ad
2GG	ad	2G	ad	.	.	.	.	.	.
.	.	.	.	.	.	.	.	4f	.
=133	=133	=133	=133	=133	=133	=133	=133	=133	=133
2GG	ve-	1G	ve-	1B-]	.	1d	ve-	2d	ve-
2GG	-ram	.	.	.	.	.	.	[2g	.
=134	=134	=134	=134	=134	=134	=134	=134	=134	=134
*	*	*	*	*	*	*col	*	*	*
2r	.	2D	.	1A	-a	4.d	-ram	2g]	.
.	.	.	.	.	.	8c	.	.	.
*	*	*	*	*	*	*Xcol	*	*	*
2D	di-	[2d	.	.	.	2A	.	2f	.
=135	=135	=135	=135	=135	=135	=135	=135	=135	=135
2E-i	-le-	2d]	.	1G	non	1r	.	2g	-ram
2E-i	-cti-	2c	.	.	.	.	.	2e-i	di-
=136	=136	=136	=136	=136	=136	=136	=136	=136	=136
2D	-o-	1d	-ram,	1A	est	2r	.	2f	-le-
*	*	*	*	*	*	*	*	*col	*
2D	-nem,	.	.	.	.	2d	di-	4.f	-cti-
.	.	.	.	.	.	.	.	8e-i	.
*	*	*	*	*	*	*	*	*Xcol	*
!!LO:LB:g=original
=137	=137	=137	=137	=137	=137	=137	=137	=137	=137
1r	.	1r	.	1r	.	2.f	-le-	4.d	-o-
.	.	.	.	.	.	.	.	8c	.
.	.	.	.	.	.	.	.	4A	-nem
.	.	.	.	.	.	4e-j	-cti-	4G	.
=138	=138	=138	=138	=138	=138	=138	=138	=138	=138
1r	.	1r	.	1r	.	4d	-o-	4B-y	per-
.	.	.	.	.	.	4c	.	4A	.
.	.	.	.	.	.	4B-y	-nem	4G	.
.	.	.	.	.	.	4A	.	4c	-du-
=139	=139	=139	=139	=139	=139	=139	=139	=139	=139
1r	.	1r	.	1r	.	4G	per-	4B-y	.
.	.	.	.	.	.	4F	.	4A	.
.	.	.	.	.	.	4B-y	-du-	4d	.
*	*	*	*	*	*	*	*	*col	*
.	.	.	.	.	.	[4A	.	[4c	.
=140	=140	=140	=140	=140	=140	=140	=140	=140	=140
1r	.	1r	.	1r	.	4A]	.	8c]L	.
.	.	.	.	.	.	.	.	8dJ	.
*	*	*	*	*	*	*	*	*Xcol	*
.	.	.	.	.	.	2G	.	4B-y	.
.	.	.	.	.	.	.	.	2A	.
.	.	.	.	.	.	4F#i	.	.	.
=141	=141	=141	=141	=141	=141	=141	=141	=141	=141
*	*	*	*	*lig	*	*	*	*	*
1GG	ut	1D	ut	1B-y	a-	1G	-cas,	2G	-cas,
.	.	.	.	.	.	.	.	[2g	ut
=142	=142	=142	=142	=142	=142	=142	=142	=142	=142
1C	pa-	2E	pa-	1c	.	2r	.	2g]	.
.	.	2E	-cem	.	.	2G	ut	2e	pa-
!!LO:LB:g=original
=143	=143	=143	=143	=143	=143	=143	=143	=143	=143
1BB-y	-cem	1D	que-	1d	.	1B-y	pa-	2.f	-cem
.	.	.	.	.	.	.	.	4g	.
=144	=144	=144	=144	=144	=144	=144	=144	=144	=144
*	*	*	*	*	*	*	*	*lig	*
[1FF	que-	2F	-rant	1c	.	1A	-cem	1a	que-
*	*	*	*	*Xlig	*	*	*	*	*
.	.	2F	et	.	.	.	.	.	.
=145	=145	=145	=145	=145	=145	=145	=145	=145	=145
*	*	*	*	*	*	*col	*	*	*
*	*	*	*	*lig	*	*	*	*	*
2FF]	.	1F	a-	1c	-li-	4.F	que-	1a	-rant
.	.	.	.	.	.	8G	.	.	.
*	*	*	*	*	*	*Xcol	*	*	*
2FF	-rant	.	.	.	.	2A	.	.	.
=146	=146	=146	=146	=146	=146	=146	=146	=146	=146
*	*	*	*	*	*	*	*	*	*edit
2BB-y	et	1F	-ment.	1d	.	2D	-rant	2b-y	et
*	*	*	*	*	*	*	*edit	*Xlig	*
2D	a-	.	.	.	.	2F	et	2b-	a-
=147	=147	=147	=147	=147	=147	=147	=147	=147	=147
1C	-ment.	1r	.	1e	.	2.G	a-	1cc	ment.
.	.	.	.	.	.	4A	.	.	.
=148	=148	=148	=148	=148	=148	=148	=148	=148	=148
*	*	*	*	*	*	*	*	*	*Xedit
*	*	*	*	*	*	*	*	*lig	*
1BB-y	Et	1F	Et	[1d	-us	[1B-y	-ment.	1f	Et
!!LO:PB:g=original
=149	=149	=149	=149	=149	=149	=149	=149	=149	=149
1BB-y	pre-	1F	pre-	1d_	.	1B-]	.	1b-y	pre-
*	*	*	*	*	*	*	*	*Xlig	*
=150	=150	=150	=150	=150	=150	=150	=150	=150	=150
*	*	*	*	*	*	*	*Xedit	*	*
*	*	*	*	*	*	*col	*	*	*
2BB-y	-sta	2F	-sta	1d_	.	4.B-y	Et	1b-	-sta
.	.	.	.	.	.	8c	.	.	.
*	*	*	*	*	*	*Xcol	*	*	*
2BB-y	no-	2F	no-	.	.	4d	pre-	.	.
.	.	.	.	.	.	4e-j	.	.	.
=151	=151	=151	=151	=151	=151	=151	=151	=151	=151
*	*	*	*	*	*	*	*	*lig	*
1D	.	1F	-bis	1d]	.	1f	-sta	1a	no-
*	*	*	*	*Xlig	*	*	*	*	*
=152	=152	=152	=152	=152	=152	=152	=152	=152	=152
*lig	*	*	*	*	*	*	*	*	*
2BB-y	.	1G	fa-	1r	.	2d	no-	2.b-y	.
*	*	*	*	*	*	*	*	*Xlig	*
2GG	.	.	.	.	.	2B-y	.	.	.
*Xlig	*	*	*	*	*	*	*	*	*
.	.	.	.	.	.	.	.	8aL	.
.	.	.	.	.	.	.	.	8gJ	.
=153	=153	=153	=153	=153	=153	=153	=153	=153	=153
2D	-bis	2A	-mu-	1r	.	2A	-bis	2f	-bis
4r	.	2B-y	.	.	.	2G	fa-	[2g	fa-
4G	fa-	.	.	.	.	.	.	.	.
!!LO:LB:g=original
=154	=154	=154	=154	=154	=154	=154	=154	=154	=154
4C	-mu-	2c	-lis	1r	.	4E	-mu-	2g]	.
4E	-lis	.	.	.	.	4G	-lis	.	.
4D	tu-	2d	tu-	.	.	4A	tu-	[2f	-mu-
4BB-y	.	.	.	.	.	4B-y	.	.	.
=155	=155	=155	=155	=155	=155	=155	=155	=155	=155
4AA	.	4c	.	1r	.	4c	.	4f]	.
4BB-y	.	2B-y	.	.	.	2F	.	4d	-lis
2C	.	.	.	.	.	.	.	2e	tu-
.	.	4A	.	.	.	4E	.	.	.
=156	=156	=156	=156	=156	=156	=156	=156	=156	=156
1BB-y	-is,	1B-y	-is,	[1d	qui	2F	-is,	1d	-is,
.	.	.	.	.	.	2r	.	.	.
=157	=157	=157	=157	=157	=157	=157	=157	=157	=157
1r	.	2F	qui	1d_	.	2D	qui	1r	.
.	.	4A	de	.	.	4F	de	.	.
.	.	[4B-y	tu-	.	.	[4G	tu-	.	.
=158	=158	=158	=158	=158	=158	=158	=158	=158	=158
1r	.	4B-]	.	1d_	.	4G]	.	2r	.
.	.	8AL	.	.	.	8FL	.	.	.
.	.	8GJ	.	.	.	8EJ	.	.	.
.	.	2F	.	.	.	2D	.	2f	qui
!!LO:LB:g=original
=159	=159	=159	=159	=159	=159	=159	=159	=159	=159
1r	.	4F	.	1d]	.	8dL	.	4a	de
.	.	.	.	.	.	8c	.	.	.
.	.	2G	.	.	.	8B-y	.	2b-y	tu-
.	.	.	.	.	.	8AJ	.	.	.
.	.	.	.	.	.	2G	.	.	.
.	.	8FL	.	.	.	.	.	8aL	.
.	.	8EJ	.	.	.	.	.	8gJ	.
=160	=160	=160	=160	=160	=160	=160	=160	=160	=160
4r	.	2D	-a	1r	.	2A	.	2f	.
2D	de	.	.	.	.	.	.	.	.
.	.	2r	.	.	.	4B-y	.	4f	.
4BB-y	.	.	.	.	.	4d	.	[4g	.
=161	=161	=161	=161	=161	=161	=161	=161	=161	=161
2C	tu-	2G	pro-	1r	.	2c	.	4g]	.
.	.	.	.	.	.	.	.	8fL	.
.	.	.	.	.	.	.	.	8eJ	.
2D	-a	4F	-te-	.	.	4A	-a	2d	-a
.	.	4F	-cti-	.	.	[4d	.	.	.
=162	=162	=162	=162	=162	=162	=162	=162	=162	=162
2G	pro-	2E	-o-	1r	.	4d]	.	1r	.
.	.	.	.	.	.	4c	.	.	.
4F	-te-	2D	-ne,	.	.	4r	.	.	.
*	*	*	*	*	*	*col	*	*	*
4F	-cti-	.	.	.	.	[4d	pro-	.	.
=163	=163	=163	=163	=163	=163	=163	=163	=163	=163
2E	-o-	2r	.	1r	.	8d]L	.	2g	pro-
.	.	.	.	.	.	8eJ	.	.	.
*	*	*	*	*	*	*Xcol	*	*	*
.	.	.	.	.	.	4.c	-te-	.	.
2D	.	4r	.	.	.	.	.	4f	-te-
.	.	.	.	.	.	8d	.	.	.
*	*	*	*edit	*	*	*	*	*	*
.	.	4F	pro-	.	.	4B-y	-cti-	4f	-cti-
!!LO:LB:g=original
=164	=164	=164	=164	=164	=164	=164	=164	=164	=164
2C	.	4G	-te-	1r	.	2c	-o-	2e	-o-
.	.	4E	-cti-	.	.	.	.	.	.
2D	.	2F	-o-	.	.	2A	.	2d	-ne
=165	=165	=165	=165	=165	=165	=165	=165	=165	=165
1BB-y	-ne	1D	-ne	1d	pu-	2B-y	-ne	2r	.
*	*	*	*	*	*	*lig	*	*	*
.	.	.	.	.	.	2F	con-	[2f	con-
=166	=166	=166	=166	=166	=166	=166	=166	=166	=166
*	*	*	*Xedit	*	*	*	*	*	*
2r	.	2BB-y	con-	2d	.	2B-y	.	4f]	.
*	*	*	*	*	*	*Xlig	*	*	*
.	.	.	.	.	.	.	.	4g	.
2FF	con-	2F	-fi-	2c	-gnet	2A	-fi-	2a	.
=167	=167	=167	=167	=167	=167	=167	=167	=167	=167
4GG	-fi-	4D	-di-	4B-y	pro	4G	.	4b-y	-fi-
*	*	*	*	*	*	*	*	*col	*
4AA	.	4C	.	4A	.	4F	.	4.cc	.
4GG	.	2D	-mus,	2B-y	.	4G	.	.	.
.	.	.	.	.	.	.	.	8b-y	.
*	*	*	*	*	*	*	*	*Xcol	*
4D	.	.	.	.	.	4D	.	[4b-y	.
=168	=168	=168	=168	=168	=168	=168	=168	=168	=168
1FF	-di-	2r	.	1c	no-	8FL	-di-	4b-]	.
.	.	.	.	.	.	8G	.	.	.
.	.	.	.	.	.	8A	.	4a	.
.	.	.	.	.	.	8B-yJ	.	.	.
.	.	[2F	ut	.	.	2c	-mus,	4a	-di-
.	.	.	.	.	.	.	.	8gL	.
.	.	.	.	.	.	.	.	8aJ	.
!!LO:LB:g=original
=169	=169	=169	=169	=169	=169	=169	=169	=169	=169
1BB-y	-mus,	2F]	.	[1B-y	-bis	2.d	ut	1b-y	-mus,
.	.	4G	cun-	.	.	.	.	.	.
.	.	4F	.	.	.	[4f	cun-	.	.
=170	=170	=170	=170	=170	=170	=170	=170	=170	=170
1r	.	2D	-cta	1B-]	.	8f]	.	1r	.
.	.	.	.	.	.	8e	.	.	.
.	.	.	.	.	.	2d	-cta	.	.
.	.	2G	no-	.	.	.	.	.	.
.	.	.	.	.	.	8cL	.	.	.
.	.	.	.	.	.	8B-yJ	.	.	.
=171	=171	=171	=171	=171	=171	=171	=171	=171	=171
2D	ut	4.F	.	1r	.	4A	no-	1r	.
.	.	.	.	.	.	8B-yL	.	.	.
.	.	8G	.	.	.	8cJ	.	.	.
4BB-y	cun-	4B-y	.	.	.	4d	.	.	.
4C	.	[4A	.	.	.	4c	.	.	.
=172	=172	=172	=172	=172	=172	=172	=172	=172	=172
4D	-cta	4A]	.	1r	.	4A	.	1r	.
4BB-y	.	2G	.	.	.	4B-y	.	.	.
4C	no-	.	.	.	.	2A	.	.	.
4D	.	4F#i	.	.	.	.	.	.	.
=173	=173	=173	=173	=173	=173	=173	=173	=173	=173
1E-X	-bis	1G	-bis	1r	.	4G	-bis	2r	.
.	.	.	.	.	.	2B-y	ad-	.	.
.	.	.	.	.	.	.	.	[2g	ad-
.	.	.	.	.	.	[4e-i	-ver-	.	.
!!LO:LB:g=original
=174	=174	=174	=174	=174	=174	=174	=174	=174	=174
2E-i	ad-	2G	ad-	1r	.	4e-]	.	2g]	.
.	.	.	.	.	.	8dL	.	.	.
.	.	.	.	.	.	8cJ	.	.	.
2E-i	-ver-	2G	-ver-	.	.	4B-y	-san-	2g	-ver-
.	.	.	.	.	.	4G	.	.	.
=175	=175	=175	=175	=175	=175	=175	=175	=175	=175
2BB-y	-san-	2F	-san-	[1B-y	ni-	2d	-ci-	2d	-san-
2BB-y	-ci-	2D	-ci-	.	.	2d	-a	2f	-ci-
=176	=176	=176	=176	=176	=176	=176	=176	=176	=176
1GG	-a	1D	-a	1B-]	.	1r	.	1g	-a
=177	=177	=177	=177	=177	=177	=177	=177	=177	=177
!!LO:TX:t=[whole] = [whole-dot]
!!!ONB: no mensuration change, coloration used
*M3/2	*	*M3/2	*	*M3/2	*	*M3/2	*	*M3/2	*
*col	*	*col	*	*col	*	*col	*	*col	*
*	*	*	*	*lig	*	*	*	*	*
1D	te	1F	te	[1.A	-si	1d	te	1a	te
[2D	ad-	[2F	ad-	.	.	2d	ad-	[2f	ad-
=178	=178	=178	=178	=178	=178	=178	=178	=178	=178
2D]	.	2F]	.	2A]	.	2f	-iu-	2f]	.
1D	-iu-	1F	-iu-	1B-y	tu,	1f	-van-	1d	-iu-
*	*	*	*	*Xlig	*	*	*	*	*
=179	=179	=179	=179	=179	=179	=179	=179	=179	=179
1C	-ven-	1G	-van-	[1.c	De-	1e	-te	1g	-van-
[2C	-te	2G	-te	.	.	2c	vin-	2e	-te
!!LO:PB:g=original
=180	=180	=180	=180	=180	=180	=180	=180	=180	=180
2C]	.	2E	.	1.c]	.	2.A	-ca-	2c	vin-
1AA	vin-	1C	.	.	.	.	.	2.e	-ca-
.	.	.	.	.	.	4B-y	.	.	.
.	.	.	.	.	.	2c	.	.	.
.	.	.	.	.	.	.	.	4f	.
=181	=181	=181	=181	=181	=181	=181	=181	=181	=181
2GG	.	1.r	.	2B-y	-us	1d	-mus,	1g	.
1D	-ca-	.	.	1A	no-	.	.	.	.
.	.	.	.	.	.	2d	ad	2f#i	.
=182	=182	=182	=182	=182	=182	=182	=182	=182	=182
1GG	-mus	1.r	.	[1.G	-ster	1B-y	lau-	1g	-mus,
2C	ad	.	.	.	.	2c	-dem	2e	ad
=183	=183	=183	=183	=183	=183	=183	=183	=183	=183
1C	lau-	1.r	.	1.G]	.	2.G	et	2.e	lau-
.	.	.	.	.	.	4A	.	4c	.
2BB-y	-dem	.	.	.	.	2B-y	glo-	2d	.
=184	=184	=184	=184	=184	=184	=184	=184	=184	=184
*	*	*	*	*	*	*lig	*	*	*
2C	et	1.r	.	[1.G	.	2e-i	-ri-	2c	-dem
2GG	.	.	.	.	.	2d	.	2d	.
*	*	*	*	*	*	*Xlig	*	*	*
*lig	*	*	*	*	*	*	*	*	*
2C	glo-	.	.	.	.	2e-i	-am	[2g	et
!!LO:LB:g=original
=185	=185	=185	=185	=185	=185	=185	=185	=185	=185
2D	.	1.r	.	1.G]	.	1d	fi-	2g]	.
*Xlig	*	*	*	*	*	*	*	*	*
*	*	*	*	*Xcol	*	*	*	*	*
1E-i	.	.	.	.	.	.	.	1g	glo-
.	.	.	.	.	.	2c	-li-	.	.
=186	=186	=186	=186	=186	=186	=186	=186	=186	=186
1D	-ri-	1A	fi-	1.r	.	1.d	-i	1f	-ri-
2D	-am	2B-y	-li-	.	.	.	.	2d	-am
=187	=187	=187	=187	=187	=187	=187	=187	=187	=187
1F	fi-	2.A	-i	1.r	.	1.r	.	1c	fi-
.	.	4B-y	.	.	.	.	.	.	.
2F	-li-	2c	.	.	.	.	.	2c	-li-
=188	=188	=188	=188	=188	=188	=188	=188	=188	=188
2F	-i	1d	tu-	1.r	.	1A	tu-	2f	-i
1E-i	tu-	.	.	.	.	.	.	1g	tu-
.	.	2c	.	.	.	2G	.	.	.
=189	=189	=189	=189	=189	=189	=189	=189	=189	=189
1D	-i	1.d	-i	1.r	.	1A	-i	1f	-i
2r	.	.	.	.	.	2F	Do-	2r	.
=190	=190	=190	=190	=190	=190	=190	=190	=190	=190
1D	Do-	1d	Do-	1.r	.	2D	-mi-	1f	Do-
.	.	.	.	.	.	2F	-ni	.	.
2BB-y	-mi-	2d	-mi-	.	.	[2f	no-	2b-y	-mi-
!!LO:LB:g=original
=191	=191	=191	=191	=191	=191	=191	=191	=191	=191
2F	-ni	2c	-ni	1.r	.	2f]	.	2a	-ni
1G	no-	1B-y	no-	.	.	1d	.	1g	no-
=192	=192	=192	=192	=192	=192	=192	=192	=192	=192
1F	-stri	1A	-stri	1.r	.	1f	-stri	1a	-stri
*	*	*lig	*	*	*	*	*	*	*
[2C	Je-	[2G	Je-	.	.	2r	.	[2e	Je-
=193	=193	=193	=193	=193	=193	=193	=193	=193	=193
2C]	.	2G]	.	1.r	.	2r	.	2e]	.
1GG	.	1B-y	.	.	.	1d	Je-	1g	.
*	*	*Xlig	*	*	*	*	*	*	*
=194	=194	=194	=194	=194	=194	=194	=194	=194	=194
2GG	-su	2B-y	-su	1.r	.	2d	-su	2g	-su
1GG	Chri-	1B-y	Chri-	.	.	1d	Chri-	1g	Chri-
=195	=195	=195	=195	=195	=195	=195	=195	=195	=195
1AA	-sti,	1A	-sti,	1.r	.	1c	-sti,	1e	-sti,
2C	qui	2G	qui	.	.	2c	qui	2e	qui
=196	=196	=196	=196	=196	=196	=196	=196	=196	=196
1D	est	1F	est	1.r	.	1A	est	1f	est
2C	ve-	2G	ve-	.	.	2c	ve-	2e	ve-
!!LO:PB:g=original
=197	=197	=197	=197	=197	=197	=197	=197	=197	=197
2BB-y	-ra	2D	.	1.r	.	2G	.	1d	-ra
1AA	pax	1E	-ra	.	.	1A	-ra	.	.
.	.	.	.	.	.	.	.	2c#i	.
=198	=198	=198	=198	=198	=198	=198	=198	=198	=198
1.r	.	1D	pax	1.r	.	1F	pax	1d	pax
.	.	2r	.	.	.	2r	.	2c	.
=199	=199	=199	=199	=199	=199	=199	=199	=199	=199
1.r	.	1.r	.	1.r	.	2G	in	2B-y	.
.	.	.	.	.	.	2B-y	se-	2G	.
.	.	.	.	.	.	2c	-cu-	2r	.
=200	=200	=200	=200	=200	=200	=200	=200	=200	=200
2GG	in	1.r	.	1.r	.	1d	-la	1.r	.
2BB-y	se-	.	.	.	.	.	.	.	.
2C	-cu-	.	.	.	.	2c	.	.	.
=201	=201	=201	=201	=201	=201	=201	=201	=201	=201
1D	-la	1.r	.	1.r	.	1B-y	.	1.r	.
2C	.	.	.	.	.	2A	.	.	.
=202	=202	=202	=202	=202	=202	=202	=202	=202	=202
2BB-y	be-	1.r	.	1.r	.	1B-y	be-	2d	in
2D	.	.	.	.	.	.	.	2f	se-
2E	-ne-	.	.	.	.	2G	-ne-	2g	-cu-
!!LO:LB:g=original
=203	=203	=203	=203	=203	=203	=203	=203	=203	=203
2F	-di-	2D	in	1.r	.	2F	-di-	1a	-la
2BB-y	.	2F	se-	.	.	2.D	.	.	.
2GG	.	2G	-cu-	.	.	.	.	2b-y	.
.	.	.	.	.	.	4E	.	.	.
=204	=204	=204	=204	=204	=204	=204	=204	=204	=204
1FF	-ctus,	1A	-la	1.r	.	2.F	.	2.cc	.
.	.	.	.	.	.	4G	.	4b-y	.
2r	.	2c	.	.	.	2A	.	4a	.
.	.	.	.	.	.	.	.	4g	.
=205	=205	=205	=205	=205	=205	=205	=205	=205	=205
*	*edit	*	*	*	*	*	*	*	*
1BB-y	be-	1d	be-	1.r	.	2D	-ctus,	1b-y	be-
*	*	*	*	*	*	*	*edit	*	*
.	.	.	.	.	.	2B-y	be-	.	.
2E-i	-ne-	2G	-ne-	.	.	2c	-ne-	2g	-ne-
=206	=206	=206	=206	=206	=206	=206	=206	=206	=206
1D	-di-	2A	-di-	1.r	.	2.d	-di-	2f	-di-
.	.	2F	.	.	.	.	.	2.a	.
.	.	.	.	.	.	4c	.	.	.
2G	.	2B-y	.	.	.	2d	.	.	.
.	.	.	.	.	.	.	.	4g	.
=207	=207	=207	=207	=207	=207	=207	=207	=207	=207
2C	.	2c	.	1.r	.	2e-i	.	1g	.
1D	.	1A	.	.	.	1d	.	.	.
.	.	.	.	.	.	.	.	2f#i	.
*Xcol	*	*Xcol	*	*	*	*Xcol	*	*Xcol	*
=208	=208	=208	=208	=208	=208	=208	=208	=208	=208
*	*	*	*	*	*edit	*	*	*	*
1.GGl	-ctus.	1.Gl	-ctus.	1.Gl	ctus.	1.dl	-ctus.	1.gl	-ctus.
*	*	*	*	*	*Xedit	*	*	*	*
==	==	==	==	==	==	==	==	==	==
*-	*-	*-	*-	*-	*-	*-	*-	*-	*-
!!!system-decoration: [*]
!!!RDF**kern: j = editorial accidental, optional, paren up
!!!RDF**kern: i = editorial accidental
!!!RDF**kern: l = terminal breve
!!!PTL: Gaspar van Weerbeke: Collected Works. IV. Motets
!!!ISBN: 978-1-59551-500-1 / 1-59551-500-3
!!!PPR: American Institute of Musicology
!!!PC#: Corpus Mensurabilis Musicae 106/IV
!!!PDT: 2010
!!!PED: Pavanello, Agnese
!!!YEC: Copyright 2008, Pavanello, Agnese
!!!YEM: CC-BY-NC 4.0 (https://creativecommons.org/licenses/by-nc/4.0/legalcode)
!!!EED: Mair-Gruber, Roland
!!!EEV: 2021/09/23
!!!muse2ps: C^@{COM}^i2I150v75,75,75,75,110c122z18l2780t100
